X: 29318
T: New Year's Eve
R: reel
M: 4/4
K: Gmajor
|:d2Bd cABG|DGBd g2fg|aAAB cBAG|ABcd eage|
d2Bd cABG|DGBd g2fg|agef g2fd|1 cAFA G2Bc:|2 cAFA GABc||
|:dg~g2 dgBg|dGBd gfed|ea~a2 eaca|eAce gfef|
dg~g2 dgBg|dGBd gabg|agef g2fd|1 cAFA GABc:|2 cAFA G2Bc||

